src/general/components/img/star-stroke.svg

<svg height="50" viewBox="0 0 50 50" width="50" xmlns="http://www.w3.org/2000/svg"><path d="m38.9221102 47.8928563c.5097393-.0508779.9407618-.294708 1.2604289-.7103712.2879883-.416623.4223828-.8975635.3321465-1.4063428l-2.3451848-14.2957395 10.269663-10.1919061c.5078193-.4751807.6921318-1.2018712.4646211-1.8757638-.196792-.6585333-.7919679-1.1481134-1.4591408-1.2460294l-14.3322179-2.1819914-6.4739771-12.95851377c-.3139073-.62973443-.9417218-1.02619833-1.6415334-1.02619833-.7007715 0-1.3353057.3964639-1.6415333 1.02619833l-6.4902964 12.95851377-14.31685862 2.1819914c-.68157232.097916-1.2460294.5874961-1.45818078 1.2460294-.21215139.6738926-.04415821 1.3996231.44830179 1.8757638l10.28598231 10.1919061-2.34518478 14.2957395c-.11711525.6998115.16607325 1.4005831.72957038 1.7864874.5634971.418543 1.3141866.4665411 1.9429611.1391943l12.8452383-6.6563696 12.8442784 6.6563696c.3302266.1833526.7055714.2380704 1.0809161.1910323zm-2.6293332-5.1559506-10.4501356-5.3959409c-.5202989-.2803086-1.1701925-.2803086-1.6904914 0l-10.4501356 5.3959409 1.9199221-11.5886494c.0950361-.6038155-.0950362-1.2105109-.518379-1.6309738l-8.36702021-8.2767839 11.60688861-1.7567286c.6038155-.0758369 1.1020353-.4502217 1.380424-.9877999l5.2730658-10.52597254 5.2903452 10.52501254c.2447901.5385382.7593292.911963 1.3631446.9877999l11.6222481 1.7567287-8.3823796 8.2767839c-.4223829.4204629-.6134151 1.0271582-.517419 1.6309737z" fill="#f5a623"/></svg>

<?xml version="1.0" encoding="UTF-8"?>
<svg width="50px" height="50px" viewBox="0 0 50 50" version="1.1" xmlns="http://www.w3.org/2000/svg" xmlns:xlink="http://www.w3.org/1999/xlink">
    <!-- Generator: Sketch 48.2 (47327) - http://www.bohemiancoding.com/sketch -->
    <title>Artboard</title>
    <desc>Created with Sketch.</desc>
    <defs></defs>
    <g id="2018011811" stroke="none" stroke-width="1" fill="none" fill-rule="evenodd">
        <g id="Artboard" fill="#F5A623" fill-rule="nonzero">
            <path d="M38.9221102,47.8928563 C39.4318495,47.8419784 39.862872,47.5981483 40.1825391,47.1824851 C40.4705274,46.7658621 40.6049219,46.2849216 40.5146856,45.7761423 L38.1695008,31.4804028 L48.4391638,21.2884967 C48.9469831,20.813316 49.1312956,20.0866255 48.9037849,19.4127329 C48.7069929,18.7541996 48.111817,18.2646195 47.4446441,18.1667035 L33.1124262,15.9847121 L26.6384491,3.02619833 C26.3245418,2.3964639 25.6967273,2 24.9969157,2 C24.2961442,2 23.66161,2.3964639 23.3553824,3.02619833 L16.865086,15.9847121 L2.54822738,18.1667035 C1.86665506,18.2646195 1.30219798,18.7541996 1.0900466,19.4127329 C0.877895214,20.0866255 1.04588839,20.812356 1.53834839,21.2884967 L11.8243307,31.4804028 L9.47914592,45.7761423 C9.36203067,46.4759538 9.64521917,47.1767254 10.2087163,47.5626297 C10.7722134,47.9811727 11.5229029,48.0291708 12.1516774,47.701824 L24.9969157,41.0454544 L37.8411941,47.701824 C38.1714207,47.8851766 38.5467655,47.9398944 38.9221102,47.8928563 Z M36.292777,42.7369057 L25.8426414,37.3409648 C25.3223425,37.0606562 24.6724489,37.0606562 24.15215,37.3409648 L13.7020144,42.7369057 L15.6219365,31.1482563 C15.7169726,30.5444408 15.5269003,29.9377454 15.1035575,29.5172825 L6.73653729,21.2404986 L18.3434259,19.48377 C18.9472414,19.4079331 19.4454612,19.0335483 19.7238499,18.4959701 L24.9969157,7.96999756 L30.2872609,18.4950101 C30.532051,19.0335483 31.0465901,19.4069731 31.6504055,19.48281 L43.2726536,21.2395387 L34.890274,29.5163226 C34.4678911,29.9367855 34.2768589,30.5434808 34.372855,31.1472963 L36.292777,42.7369057 Z" id="Shape-Copy-4"></path>
        </g>
    </g>
</svg>
